X:1
T:E Major Timothy Swan, 1801
T:Isaac Watts, 1706 Bewailing My Own Inconstancy 88. 88. (L. M.)
T:Moreen
T:Transcribed from Swan's New England Harmony, 1801.
%%score [ 1 2 3 4 ]
L:1/8
Q:1/8=180
M:4/4
K:E
V:1 treble nm="Tr." snm="Tr."
V:2 treble nm="C." snm="C."
V:3 treble-8 nm="T." snm="T."
V:4 bass nm="B." snm="B."
V:1
"^3.  This   foolish     heart  can   leave   her   God,    And  sha–dows tempt her thoughts abroad:""^2.  Would  I  en   –   joy     my    Lord    a  –  lone,     I          bid            my  passions all be gone,""^1.  Oft  I       am        told    the   muse   will  prove   A         friend       to     pi–e–ty   and   love;" c4 e2 e2 | %1
 f6 f2 | (e2 B2) (c2 e2) | B6 B2 | (e4 B2) A2 | G3 A B2 B2 | e8 | z8 | z8 | z8 | z8 | %11
"^1. Straight I begin some sa –cred song,  And  take my  Savior on  my  tongue.""^2.  All but my love; and charge my will    To    bar  the  door and guard it still.""^3. How shall I fix this wan–d'ring mind, Or throw my  fetters  on  the wind?" B4 c2 e2 | %12
 d2 B2 B4 | (B2 G2) e4 | e4 g2 e2 | d2 B2 B2 G2 | F8 | z8 | z8 | z8 | z8 | z8 | z8 | %23
 z4 z2"^1. To    hold ____________________          the     empty sounds in chase; ___________________               At   best  the   chimes""^2. Still  new ____________________           a  –   ve – nues  to  the  mind, ___________________               Till      I    with grief""^3. That  I ________________________         shall   live  a – lone  for  thee; ____________________               My    heart  no  for –" E2 | %24
 B8- | B6 B2 | e2 e2 e2 g2 | B8- | B6 e2 | d3 c B4 | %30
"^1. di –vide  my    heart,     And               the  muse shares the  lar – ger     part.""^2. and  won–der  see         Huge              crowds betwixt my  Lord  and     me.\n""^3. –eign lords  adore,        And               the  wild muse  prove  false  no  more?" B4 e2 df | %31
 e8 | (e2 B2 c2) e2 | d4 e2 g2 | c4 B4 | B8 |] %36
V:2
 G4 E2 E2 | B4 B4 | E4 E4 | F6 G2 | (G2 E2 B2) F2 | G3 c B2 B2 | G8 | z8 | z8 | z8 | %10
"^1.  Straight I begin some   sa  –  cred  song,            And    take  my  Savior on  my  tongue.""^2.  All  but my love;  and   charge  my  will               To       bar  the  door and guard it still.""^3.  How  shall  I  fix  this  wandering  mind,            Or     throw my  fetters  on  the wind?" E4 G2 G2 | %11
 F4 E4 | F6 F2 | G8 | B4 G2 G2 | G2 B2 F2 GA | B8 | z8 | z8 | z8 | z8 | z8 | %22
 z4 z2"^1. To    hold _________________        the  emp – ty sounds in chase;                     At        best the chimes _______________________________""^2.  Still new _________________        a  – ve  – nues  to  the     mind,                     Till        I   with  grief __________________________________""^3.  That  I ____________________       shall   live  a – lone   for   thee;                      My     heart no  for      –         –         –         –          –" E2 | %23
 B8- | B6 G2 | BA GF G2 E2 | B8 | G4 E2 E2 | (GFGA B2 E2 | FEFG F4) | B4 AG F2 | E8 | %32
 (G2 F2 E2) F2 | G4 B2 B2 | (G2 A2 F2) F2 | G8 |] %36
V:3
"^1.  Oft  I       am        told    the   muse   will  prove   A         friend       to     pi–e–ty   and   love;                                                            Straight I be –""^2.  Would  I  en   –   joy     my    Lord    a  –  lone,     I          bid            my  passions all be gone,                                                            All but my""^3.  This   foolish     heart  can   leave   her   God,    And  sha–dows tempt her thoughts abroad:                                                       How shall I" e4 BA GF | %1
 (E4 c2) c2 | (c2 B2) (A2 G2) | F6 GA | (B2 g2 e2) c2 | B3 c B2 G2 | B8 | z8 | z8 | B4 B2 B2 | %10
"^1.  –gin     some sa – cred    song, _____________     And  take  my Savior on           my    tongue.  Strangely I lose his love – ly   face,""^2.  love;      and  charge  my  will  ______________     To    bar the  door and guard     it      still.      But cares or trifles make  or   find""^3.   fix       this  wandering mind, _____________      Or  throw my fetters  on          the    wind?   Say, when shall that bright moment be," (B2 G2 e2) e2 | %11
 d4 c4 | B8- | B6 e2 | G2 B2 GA B2 | (B4 d2) f2 | f8 | A4 A2 A2 | A2 c2 BA GF | E8 | z8 | %21
 z4 z2"^1. To     hold __________   the empty sounds in chase;               At best the chimes ________________________________________________________""^2.  Still   new __________    a  – ve–nues  to  the  mind,               Till  I   with  grief _________________________________________________________""^3.  That  I ______________   shall  live  alone  for   thee;                 My heart no  for    –         –         –         –          –         –         –          –" E2 | %22
 B8- | B6 B2 | e2 e2 e2 g2 | B6 GA | B2 cd (e2 B2 | GA B2 e2 B2 | c2 B2 cd e2 | d8) | %30
"^1. di –vide  my    heart,     And               the  muse shares the  lar – ger     part.""^2. and  won–der  see         Huge              crowds betwixt my  Lord  and     me.\n""^3. –eign lords  adore,        And               the  wild muse  prove  false  no  more?" f4 A2 A2 | %31
 G8 | (e2 d2 cB) A2 | G4 e2 e2 | (c4 d2) d2 | e8 |] %36
V:4
 E,4 E,F, G,A, | B,4 F,4 | (A,2 G,2) (F,2 E,2) | B,,6 E,2 | E,6 F,2 | G,3 F, G,2 B,2 | E,8 | %7
"^1.  Straight I begin some sa–cred   song, ______""^2.  All  but my love; and charge my will  _______""^3.  How shall I  fix this wandering mind, _____" E,4 E,2 E,2 | %8
 G,2 C2 B,A, G,F, | E,8- | %10
"^1.  __               And take my Sa – vior  on my tongue. ____________________________________________                                                                                   To""^2.  __                 To  bar  the door and guard it  still. ______________________________________________                                                                                 Still""^3.  __               Or  throw  my  fetters  on  the  wind? _____________________________________________                                                                                That" E,8 | %11
 B,,4 A,2 A,2 | B,4 B,,4 | E,2 E,2 (E,4 | E,8 | G,2 E,2 B,4- | B,8) | z8 | z8 | z8 | z4 z2 E,2 | %21
"^1.  hold ___________the empty sounds in chase; __________""^2.  new ___________  a –ve–nues  to  the  mind, ___________""^3.  I _______________  shall  live  alone  for   thee; ___________" B,8- | %22
 B,6 G,2 | B,2 B,,2 E,2 E,2 | E,8- | E,6 B,A, | G,2 F,2 (E,4- | E,8- | E,4 G,2 E,2 | B,8) | %30
 B,,4 C,2 D,2 | E,8 | (E,2 B,2 A,2) F,2 | G,4 E,2 E,2 | (C2 A,2 B,2) B,,2 | E,8 |] %36

